packages/assets/static/images/icons/cash.svg

<svg width="24" height="24" viewBox="0 0 24 24" xmlns="http://www.w3.org/2000/svg">
<g clip-path="url(#clip0_2001_46056)">
<path d="M23 4.875H2C1.70163 4.875 1.41548 4.99353 1.2045 5.2045C0.993526 5.41548 0.875 5.70163 0.875 6V18C0.875 18.2984 0.993526 18.5845 1.2045 18.7955C1.41548 19.0065 1.70163 19.125 2 19.125H23C23.2984 19.125 23.5845 19.0065 23.7955 18.7955C24.0065 18.5845 24.125 18.2984 24.125 18V6C24.125 5.70163 24.0065 5.41548 23.7955 5.2045C23.5845 4.99353 23.2984 4.875 23 4.875ZM17.4884 16.875H7.51156C7.28896 15.7952 6.75487 14.8043 5.97529 14.0247C5.1957 13.2451 4.20479 12.711 3.125 12.4884V11.5116C4.20479 11.289 5.1957 10.7549 5.97529 9.97529C6.75487 9.1957 7.28896 8.20479 7.51156 7.125H17.4884C17.711 8.20479 18.2451 9.1957 19.0247 9.97529C19.8043 10.7549 20.7952 11.289 21.875 11.5116V12.4884C20.7952 12.711 19.8043 13.2451 19.0247 14.0247C18.2451 14.8043 17.711 15.7952 17.4884 16.875ZM21.875 9.18188C21.4012 9.01274 20.9709 8.74048 20.6152 8.38477C20.2595 8.02906 19.9873 7.59877 19.8181 7.125H21.875V9.18188ZM5.18187 7.125C5.01274 7.59877 4.74048 8.02906 4.38477 8.38477C4.02906 8.74048 3.59877 9.01274 3.125 9.18188V7.125H5.18187ZM3.125 14.8181C3.59877 14.9873 4.02906 15.2595 4.38477 15.6152C4.74048 15.9709 5.01274 16.4012 5.18187 16.875H3.125V14.8181ZM19.8181 16.875C19.9873 16.4012 20.2595 15.9709 20.6152 15.6152C20.9709 15.2595 21.4012 14.9873 21.875 14.8181V16.875H19.8181ZM12.5 8.25C11.7583 8.25 11.0333 8.46993 10.4166 8.88199C9.79993 9.29404 9.31928 9.87971 9.03545 10.5649C8.75162 11.2502 8.67736 12.0042 8.82205 12.7316C8.96675 13.459 9.3239 14.1272 9.84835 14.6517C10.3728 15.1761 11.041 15.5333 11.7684 15.6779C12.4958 15.8226 13.2498 15.7484 13.9351 15.4645C14.6203 15.1807 15.206 14.7001 15.618 14.0834C16.0301 13.4667 16.25 12.7417 16.25 12C16.25 11.0054 15.8549 10.0516 15.1517 9.34835C14.4484 8.64509 13.4946 8.25 12.5 8.25ZM12.5 13.5C12.2033 13.5 11.9133 13.412 11.6666 13.2472C11.42 13.0824 11.2277 12.8481 11.1142 12.574C11.0006 12.2999 10.9709 11.9983 11.0288 11.7074C11.0867 11.4164 11.2296 11.1491 11.4393 10.9393C11.6491 10.7296 11.9164 10.5867 12.2074 10.5288C12.4983 10.4709 12.7999 10.5006 13.074 10.6142C13.3481 10.7277 13.5824 10.92 13.7472 11.1666C13.912 11.4133 14 11.7033 14 12C14 12.3978 13.842 12.7794 13.5607 13.0607C13.2794 13.342 12.8978 13.5 12.5 13.5Z"/>
</g>
<defs>
<clipPath id="clip0_2001_46056">
<rect width="24" height="24"/>
</clipPath>
</defs>
</svg>

<svg viewBox="0 0 24 24" xmlns="http://www.w3.org/2000/svg" aria-hidden="true" fill="currentColor" height="24px" width="24px"><g clip-path="url(#a)"><path d="M23 4.875H2A1.125 1.125 0 0 0 .875 6v12A1.125 1.125 0 0 0 2 19.125h21A1.125 1.125 0 0 0 24.125 18V6A1.125 1.125 0 0 0 23 4.875m-5.512 12H7.512a5.64 5.64 0 0 0-4.387-4.387v-.976a5.64 5.64 0 0 0 4.387-4.387h9.976a5.64 5.64 0 0 0 4.387 4.387v.976a5.64 5.64 0 0 0-4.387 4.387m4.387-7.693a3.4 3.4 0 0 1-2.057-2.057h2.057zM5.182 7.125a3.4 3.4 0 0 1-2.057 2.057V7.125zm-2.057 7.693a3.4 3.4 0 0 1 2.057 2.057H3.125zm16.693 2.057a3.4 3.4 0 0 1 2.057-2.057v2.057zM12.5 8.25a3.75 3.75 0 1 0 0 7.5 3.75 3.75 0 0 0 0-7.5m0 5.25a1.5 1.5 0 1 1 0-3 1.5 1.5 0 0 1 0 3"/></g><defs><clipPath id="a"><path d="M0 0h24v24H0z"/></clipPath></defs></svg>
